X:65
T: ALS DIE WUNDERSCHOENE ANNA
N: E0042K
O: Europa, Mitteleuropa, Deutschland, Lahngegend; Westerwald; Wetterau
R: erzaehlendes Volks - Lied, Ritter -, Raeuber - Sage
M: 2/4
L: 1/8
K: Eb
EG | BBBB | AG
FE | GFFF | F2
EG | BBBB | AG
FE | GFFF | F2
e2 | BBGF | E2
GG | A2Ac | Be
e2 | BBGF | E2
GG | B2BA | G2

